X: 25
T: la Temp\^ete
B:Aird's Collection 1788-1803
R:march
B:RSCDS 2-1
Z:1997 by John Chambers <jc:trillian.mit.edu>
N:Suitable Pipe Tunes "Kilberry Polka"
M:2/4
L:1/8
K:C
"^A"\
|: "C"[cE]>G (5G/A/G/^F/G | e>c c2 | "G7"dG AB | "C"ce g2 \
 | "C"[cE]>G ~G2 | e>c c2 | "G7"dG AB | "C"[cE]z [cE]z :|
"^B"\
|: "C"g>e e>c | "G7"dB G2 | "C"g>e e>c | "G7"dB G2 \
 | "C"[cE]>G ~G2 | e>c c2 | "G7"dB AB | "C"cz cz :|
"^C"\
[| "C"c>e g>e | "F"a>f "C"g>e | "Dm"f>d "C"e>c | "G7"d/c/B/A/G2 \
 | "C"c>e g>e | "F"a>f "C"g>e | "Dm"f>d "C"e>c | "G7"dB "C"c2 |]
"^D"\
[| "C"g>e e>c | "G7"dB G2 | "C"g>e e>c | "G7"dB G2 \
 | "C"c>e g>e | "F"a>f "C"g>e | "Dm"f>d "C"e>c | "G7"dB "C"c2 |]
%%begintext align
%% Play ABCD for 32 bars, ABABCD for 48 bars, or ABABCDCD for 64 bars.
%%endtext

%%sep 2 1 500

